svgs/light/horse-head.svg

<svg xmlns="http://www.w3.org/2000/svg" viewBox="0 0 512 512"><!--! Font Awesome Pro 6.3.0 by @fontawesome - https://fontawesome.com License - https://fontawesome.com/license (Commercial License) Copyright 2023 Fonticons, Inc. --><path d="M508.7 320.9l-59.51-155.5c-12.33-34.17-38.87-62.4-72.24-77.44c14.51-15.09 24.92-34.61 15.78-69.6c-1.869-6.775-6.551-12.44-12.87-15.64C376.4 .918 372.5 0 368.7 0c-2.92 0-5.791 .502-8.531 1.494c-32.48 12.15-62.09 22.24-90.72 31.1C95.69 92.7 0 125.3 0 394.3v53.72C0 483.3 28.65 512 64 512h203.9c35.1 0 57.65-36.9 41.87-68.14l-23.34-50.92c-2.99-5.689-8.422-8.975-14.37-8.975c-2.59 0-5.174 .6465-7.475 1.869c-7.748 4.092-10.77 13.77-6.717 21.57l23.27 50.71C286.5 468.7 278.7 480 267.9 480H64c-17.67 0-32-14.33-32-32v-53.72c0-246.6 77.85-272.8 248.4-330.3c25.11-8.455 53.27-17.94 83.15-28.83c3.734 26.73-12.28 36.14-26.56 44.54l-37.4 22.1l41.45 8.002c35.9 6.971 65.89 32.61 78.25 66.92l59.69 155.1c2.154 5.439 .9434 11.97-2.912 15.96l-35.75 30.44c-3.307 3.271-7.082 4.836-11.09 4.836h-48.69c-4.836 0-9.379-2.344-12.15-6.27l-39.31-44.86c.3516-.2852 .6953-.5781 1.037-.8789c6.623-5.875 7.25-16 1.41-22.59c-3.02-3.438-7.402-5.424-12-5.424c-3.92 0-7.686 1.438-10.61 4.053c-14.59 12.86-33.39 19.96-52.89 19.96c-41.32 0-76.34-32.2-79.72-73.31C175.7 246.3 168.9 239.1 160.6 239.1H160.2l-1.389 .1094C154.8 240.4 150.9 242.4 148.2 245.6C145.4 248.9 144.1 253.1 144.4 257.3c4.742 57.56 53.77 102.7 111.6 102.7c15.31 0 30.93-3.467 45.56-10.07l41.22 47c8.248 11.7 22.54 19.07 37.72 19.07h48.69c12.39 0 24.39-4.903 32.9-13.45l35.93-30.62C511.6 358 515.6 338.2 508.7 320.9zM360 208c0-13.26-10.75-24-24-24s-24 10.74-24 24c0 13.25 10.75 24 24 24S360 221.3 360 208z"/></svg>

<svg xmlns="http://www.w3.org/2000/svg" viewBox="0 0 512 512"><!-- Font Awesome Pro 6.0.0-alpha2 by @fontawesome - https://fontawesome.com License - https://fontawesome.com/license (Commercial License) --><path d="M508.707 320.896L449.201 165.352C436.869 131.184 410.328 102.947 376.965 87.91C391.477 72.822 401.885 53.305 392.746 18.309C390.877 11.533 386.195 5.871 379.873 2.664C376.406 0.918 372.533 0 368.654 0C365.734 0 362.863 0.502 360.123 1.494C327.645 13.641 298.035 23.732 269.398 33.49C95.689 92.695 0 125.309 0 394.277V448C0 483.346 28.656 512 64.004 512H267.9C303 512 325.547 475.1 309.762 443.859L286.426 392.943C283.436 387.254 278.004 383.969 272.055 383.969C269.465 383.969 266.881 384.615 264.58 385.838C256.832 389.93 253.811 399.609 257.863 407.406L281.133 458.117C286.461 468.748 278.697 480 267.9 480H64.004C46.33 480 32.002 465.672 32.002 448V394.277C32.002 147.686 109.848 121.469 280.41 64.025C305.516 55.57 333.68 46.086 363.564 35.199C367.299 61.926 351.283 71.34 337 79.738L317.773 91.102L299.602 101.842L320.328 105.844L341.047 109.844C376.947 116.814 406.936 142.457 419.295 176.764L478.982 332.76C481.137 338.199 479.926 344.727 476.07 348.723L440.32 379.16C437.014 382.432 433.238 383.996 429.227 383.996H380.535C375.699 383.996 371.156 381.652 368.383 377.727L329.07 332.871C329.422 332.586 329.766 332.293 330.107 331.992C336.73 326.117 337.357 315.992 331.518 309.406C328.498 305.969 324.115 303.982 319.518 303.982C315.598 303.982 311.832 305.42 308.912 308.035C294.326 320.891 275.525 327.994 256.023 327.994C214.701 327.994 179.686 295.791 176.305 254.68C175.65 246.309 168.912 239.971 160.631 239.969H160.166L158.777 240.078C154.811 240.381 150.932 242.363 148.16 245.629C145.383 248.898 144.055 253.053 144.418 257.328C149.16 314.889 198.184 359.996 256.023 359.996C271.332 359.996 286.953 356.529 301.582 349.928L342.801 396.932C351.049 408.627 365.348 415.996 380.535 415.996H429.227C441.621 415.996 453.609 411.094 462.119 402.547L498.053 371.926C511.588 358.049 515.557 338.219 508.707 320.896ZM360.02 208C360.02 194.744 349.271 184 336.018 184S312.016 194.744 312.016 208C312.016 221.254 322.764 232 336.018 232S360.02 221.254 360.02 208Z"/></svg>
